X:249
T:Lark in the Morning, The
C:Traditional
R:jig
M:6/8
K:D
AFA AFA|B3 BdB|A3 AFA|fed BdB|
A3 AFA|B3 BAB|def afe|1 fdB BdB:|2 fdB BAB||
|:def a3|baf afe|def afe|fdB BAB|
def a3|baf afd|g3 fgf|edB BAB:|
|:d2f fef|fef fef|d2f fef|edB BAB|
d2f fef|fef fef|g3 fgf|1 edB BAB:|2 edB BdB||
|:Add fdd|ede fdB|Add fdd|edB BAF|
Add fdd|ede fed|g3 fgf|1 edB BAF:|2 edB BdB||

%%newpage
%%scale .7
%%staffsep 30	

